icons/circle/48/falling_time.svg

<svg xmlns="http://www.w3.org/2000/svg" viewBox="0 0 48 48">
 <defs>
  <linearGradient id="linearGradient4218" gradientUnits="userSpaceOnUse" x1="1" x2="47" gradientTransform="matrix(0,-1,1,0,0,48)">
   <stop style="stop-color:#646464;stop-opacity:1"/>
   <stop offset="1" style="stop-color:#6e6e6e;stop-opacity:1"/>
  </linearGradient>
 </defs>
 <g>
  <path d="m 36.31 5 c 5.859 4.062 9.688 10.831 9.688 18.5 c 0 12.426 -10.07 22.5 -22.5 22.5 c -7.669 0 -14.438 -3.828 -18.5 -9.688 c 1.037 1.822 2.306 3.499 3.781 4.969 c 4.085 3.712 9.514 5.969 15.469 5.969 c 12.703 0 23 -10.298 23 -23 c 0 -5.954 -2.256 -11.384 -5.969 -15.469 c -1.469 -1.475 -3.147 -2.744 -4.969 -3.781 z m 4.969 3.781 c 3.854 4.113 6.219 9.637 6.219 15.719 c 0 12.703 -10.297 23 -23 23 c -6.081 0 -11.606 -2.364 -15.719 -6.219 c 4.16 4.144 9.883 6.719 16.219 6.719 c 12.703 0 23 -10.298 23 -23 c 0 -6.335 -2.575 -12.06 -6.719 -16.219 z" style="opacity:0.05"/>
  <path d="m 41.28 8.781 c 3.712 4.085 5.969 9.514 5.969 15.469 c 0 12.703 -10.297 23 -23 23 c -5.954 0 -11.384 -2.256 -15.469 -5.969 c 4.113 3.854 9.637 6.219 15.719 6.219 c 12.703 0 23 -10.298 23 -23 c 0 -6.081 -2.364 -11.606 -6.219 -15.719 z" style="opacity:0.1"/>
  <path d="m 31.25 2.375 c 8.615 3.154 14.75 11.417 14.75 21.13 c 0 12.426 -10.07 22.5 -22.5 22.5 c -9.708 0 -17.971 -6.135 -21.12 -14.75 a 23 23 0 0 0 44.875 -7 a 23 23 0 0 0 -16 -21.875 z" style="opacity:0.2"/>
 </g>
 <path d="m 24 1 c -12.703 0 -23 10.297 -23 23 0 9.992 6.372 18.491 15.273 21.666 23.17 -7.666 26.727 -13.666 30.24 -26.383 -2.176 -10.44 -11.428 -18.283 -22.514 -18.283" style="fill:url(#linearGradient4218);fill-opacity:1"/>
 <path d="M 46.514 19.283 A 32.903 32.903 0 0 0 16.273 45.666 C 18.689 46.527 21.289 47 24 47 C 36.703 47 47 36.703 47 24 C 47 22.383 46.831 20.806 46.514 19.283 z" style="fill:#aeb2b7;opacity:1;fill-opacity:1;stroke:none;fill-rule:nonzero"/>
 <path d="m 30.21 14.973 a 5.393 5.393 0 0 0 -5.393 5.395 5.393 5.393 0 0 0 5.393 5.393 5.393 5.393 0 0 0 0.031 -0.002 L 27.782 28.22 A 7.871 6.229 44.515 0 0 25.17 23.557 7.871 6.229 44.515 0 0 15.196 22.5 7.871 6.229 44.515 0 0 16.461 32.463 7.871 6.229 44.515 0 0 26.438 33.518 7.871 6.229 44.515 0 0 27.776 31 l 5.225 0 0 -6.02 a 5.393 5.393 0 0 0 2.604 -4.609 5.393 5.393 0 0 0 -5.393 -5.395 z" style="fill:#000;opacity:0.1;fill-opacity:1;stroke:none;fill-rule:nonzero"/>
 <g>
  <path d="m 40.03 7.531 c 3.712 4.084 5.969 9.514 5.969 15.469 0 12.703 -10.297 23 -23 23 c -5.954 0 -11.384 -2.256 -15.469 -5.969 4.178 4.291 10.01 6.969 16.469 6.969 c 12.703 0 23 -10.298 23 -23 0 -6.462 -2.677 -12.291 -6.969 -16.469 z" style="opacity:0.1"/>
 </g>
 <circle cx="29.21" cy="19.367" r="5.393" style="fill:#f9f9f9;opacity:1;fill-opacity:1;stroke:none;fill-rule:nonzero"/>
 <ellipse cx="-5.42" cy="33.05" rx="6.229" ry="7.871" transform="matrix(0.69923197,-0.71489485,0.71421236,0.69992907,0,0)" style="fill:#f9f9f9;opacity:1;fill-opacity:1;stroke:none;fill-rule:nonzero"/>
 <circle cx="29.5" cy="20.5" r="1.5" style="fill:#2d2d2d;opacity:1;fill-opacity:1;stroke:none;fill-rule:nonzero"/>
 <ellipse transform="matrix(0.69923197,-0.71489485,0.71421236,0.69992907,0,0)" ry="2.061" rx="1.631" cy="33.451" cx="-3.873" style="fill:#2d2d2d;opacity:1;fill-opacity:1;stroke:none;fill-rule:nonzero"/>
 <path d="m 26.907 29.09 -1.906 1.906 l 1.449 0 a 7.871 6.229 44.515 0 0 0.457 -1.906 z" style="fill:#000;opacity:0.1;fill-opacity:1;stroke:none;fill-rule:evenodd"/>
 <path d="m 32 30 0 -8 -8 8 z" style="fill:#ff7f2a;fill-opacity:1;stroke:none;fill-rule:evenodd"/>
 <path d="m 33 23 -0.943 0.943 a 5.393 5.393 0 0 0 0.943 -0.74 l 0 -0.203 z" style="fill:#000;opacity:0.1;fill-opacity:1;stroke:none;fill-rule:nonzero"/>
</svg>

<svg xmlns="http://www.w3.org/2000/svg" viewBox="0 0 48 48">
  <defs>
    <linearGradient id="a" gradientUnits="userSpaceOnUse" x1="1" x2="47" gradientTransform="rotate(-90 24 24)">
      <stop stop-color="#646464"/>
      <stop offset="1" stop-color="#6e6e6e"/>
    </linearGradient>
  </defs>
  <path d="M36.31 5c5.859 4.062 9.688 10.831 9.688 18.5 0 12.426-10.07 22.5-22.5 22.5-7.669 0-14.438-3.828-18.5-9.688a23.24 23.24 0 0 0 3.781 4.969 22.923 22.923 0 0 0 15.469 5.969c12.703 0 23-10.298 23-23a22.92 22.92 0 0 0-5.969-15.469A23.216 23.216 0 0 0 36.31 5zm4.969 3.781A22.911 22.911 0 0 1 47.498 24.5c0 12.703-10.297 23-23 23a22.909 22.909 0 0 1-15.719-6.219C12.939 45.425 18.662 48 24.998 48c12.703 0 23-10.298 23-23 0-6.335-2.575-12.06-6.719-16.219z" opacity=".05"/>
  <path d="M41.28 8.781a22.923 22.923 0 0 1 5.969 15.469c0 12.703-10.297 23-23 23A22.92 22.92 0 0 1 8.78 41.281 22.911 22.911 0 0 0 24.499 47.5c12.703 0 23-10.298 23-23A22.909 22.909 0 0 0 41.28 8.781z" opacity=".1"/>
  <path d="M31.25 2.375C39.865 5.529 46 13.792 46 23.505c0 12.426-10.07 22.5-22.5 22.5-9.708 0-17.971-6.135-21.12-14.75a23 23 0 0 0 44.875-7 23 23 0 0 0-16-21.875z" opacity=".2"/>
  <path d="M24 1C11.297 1 1 11.297 1 24c0 9.992 6.372 18.491 15.273 21.666C39.443 38 43 32 46.513 19.283 44.337 8.843 35.085 1 23.999 1" fill="url(#a)"/>
  <path d="M46.514 19.283a32.903 32.903 0 0 0-30.241 26.383A22.971 22.971 0 0 0 24 47c12.703 0 23-10.297 23-23 0-1.617-.169-3.194-.486-4.717z" fill="#aeb2b7"/>
  <path d="M30.21 14.973a5.393 5.393 0 0 0-5.393 5.395 5.393 5.393 0 0 0 5.393 5.393 5.393 5.393 0 0 0 .031-.002l-2.459 2.461a7.871 6.229 44.515 0 0-2.612-4.663 7.871 6.229 44.515 0 0-9.974-1.057 7.871 6.229 44.515 0 0 1.265 9.963 7.871 6.229 44.515 0 0 9.977 1.055A7.871 6.229 44.515 0 0 27.776 31h5.225v-6.02a5.393 5.393 0 0 0 2.604-4.609 5.393 5.393 0 0 0-5.393-5.395z" opacity=".1"/>
  <path d="M40.03 7.531A22.922 22.922 0 0 1 45.999 23c0 12.703-10.297 23-23 23A22.92 22.92 0 0 1 7.53 40.031C11.708 44.322 17.54 47 23.999 47c12.703 0 23-10.298 23-23 0-6.462-2.677-12.291-6.969-16.469z" opacity=".1"/>
  <circle cx="29.21" cy="19.367" r="5.393" fill="#f9f9f9"/>
  <ellipse cx="-5.42" cy="33.05" rx="6.229" ry="7.871" transform="rotate(-45.635) skewX(-.056)" fill="#f9f9f9"/>
  <circle cx="29.5" cy="20.5" r="1.5" fill="#2d2d2d"/>
  <ellipse transform="rotate(-45.635) skewX(-.056)" ry="2.061" rx="1.631" cy="33.451" cx="-3.873" fill="#2d2d2d"/>
  <path d="M26.907 29.09l-1.906 1.906h1.449a7.871 6.229 44.515 0 0 .457-1.906z" opacity=".1" fill-rule="evenodd"/>
  <path d="M32 30v-8l-8 8z" fill="#ff7f2a" fill-rule="evenodd"/>
  <path d="M33 23l-.943.943a5.393 5.393 0 0 0 .943-.74V23z" opacity=".1"/>
</svg>
